X: 10711
Q: "Copyright."
M: 3/8
L: 1/16
K: Eb
"_>".B2(g2e2) | "_>".B2(g2e2) !f!| b3afg | e2d2c2 !p!|\
"_>".B2(g2e2) | "_>".B2(g2e2) | ("_>"B3AGA | F2G2A2) |\
!p!"_>".B2(g2e2) | "_>".B2(g2e2) !f!| b3afg | agfedc |\
.B2(e2B2) | .c2(f2c2) | defbBb | "^Fin."e4 H|]
g2 |\
fd B2.b2 | ge B2b2 | aaa2a2 | ggg2z2 |\
fd B2b2 | ge B2e2 | _ddd2d2 | ccc2z2 |\
"_>"G2(g2e2) | "_>"E2(g2e2) | defbBb | e4 |]
e2 |\
e2d2c2 | G2gGg2 | f2e2(d2 | e2)c2d2 |\
(=e2f2g2) | f2-fFf2 | d2e2f2 | e2-eEe2- |\
e2d2c2 | =B2z2 (3(gag) | G2z2 (3(gag) | "^D.C."c4 :|


